X:65
T: Andy Brooks'
C: BB
M: 4/4
L: 1/8
Q: 1/8=350
R: reel
K: Dm
z4 z2 DE|"Dm"FDAD FDAD|FGAd "C"cAGE|"Dm"FDAD "F"FAcA|"Dm"dfed "C"cBAG|
"Dm"FDAD FDAD|FGAd "C"c=BcA|"Dm"FEDA dcAG|"Am"EA,CE "Dm"D2 :|
[K:D] z4 z2 DE|"D"FDAD BDAD|"Bm"B2 dB fedB|"D"Addc defg|"Bm"afbf "A"a2 ag|
"D"faaf "G"gfed|"Bm"BdcB "A"AFEG|"D"FDAD "Bm"BDAD|"A"AecA "D"d2 :|

%%%%%%%%%%%%%%%%%%%%%%%%%%%%%%%%%%%%%%%%%%%

